X: 1572
T: Angus Chisholm's
R: polka
M: 2/4
K: Dmajor
|:fg|a^gab a2 d'2|f4 a3 d|dcde f2 d2|F4 A4|
G3 A B2 AG|F2 d2 d3 c|1 B2 e2 efgf|edcB Ad:|2 Beef gece|dcdA d2||
F2|A^GAB A2 f2|A4 f2 fe|dcde d2 b2|a4 afga|
gb b/b/b fa a/a/a|eg g/g/g df f/f/f|gfga gfed|cdef edcB|
A^GAB A2 f2|A4 f3 e|dcde d2 b2|a4- afga|
bB B/B/B bB Bb|aA A/A/A A2 Aa|gfed cABc|d2 dc de||

